X:13
T:Marche du Marseillais. JClw.13
M:4/4
L:1/8
Q:1/4=180
S:J.Clews MS,Stoke-upon-Tern,Shrops.1832
N:The well known French National Anthem with
N:a few interesting bits added! NeilB.
A:N. Shropshire
Z:Neil Brookes 2006
K:D
AAA|d2d2e2e2|a3f dddc|B2g4ec|d4z2de|!
f2f2f2 gf|fef2z2ef|g2g2g2ag|f4z2aa|a2fd a2fd|A4z2(3AAA|!
e4g2ec|d2d2=c4|B2BBd2cd|e4z2ze|=f3fefgf|e4z2=fe|dcc4za|!
a4-ae=fd|e4A2aa|A2A2A2(3AAA|A2(3AAA A2(3AAA|A2z2z2za|!
a4-ae=fd|e4A2aa|A2A2A2(3AAA|A2(3AAA A2(3AAA|A2z2z2A2|!
d6d2|f8|g4a2b2|e6zb|a4 afge|d6A2|d6d2|f8|g4a2b2|e6zb|a4 afge|d8|]

